assets/build/img/lp-logo.svg

<svg width="63" height="8" viewBox="0 0 63 8" fill="none" xmlns="http://www.w3.org/2000/svg">
	<g opacity="0.5">
		<g clip-path="url(#clip0)">
			<path d="M9.86625 0H11.1872V6.83012H14.5171V7.99299H9.85938L9.86625 0Z" fill="black"/>
			<path
				d="M22.6657 7.99299H21.2278L20.5742 6.05955H17.4782L16.8246 7.99299H15.3867L18.2901 0H19.7693L22.6657 7.99299ZM17.8773 4.89667H20.1889L19.0331 1.4711L17.8773 4.89667Z"
				fill="black"/>
			<path d="M24.3826 1.16287H22.2773V0H27.8157V1.16287H25.7036V7.99299H24.3826V1.16287Z" fill="black"/>
			<path
				d="M29.0469 0H33.8285V1.16287H30.3747V3.39054H33.5601V4.55342H30.3747V6.82312H33.9317V7.98599H29.0538V0H29.0469Z"
				fill="black"/>
			<path
				d="M38.0882 0C39.7806 0 40.8057 1.00175 40.8057 2.54991C40.8057 3.81786 40.1178 4.72154 38.9344 5.00876L40.964 8H39.5054L37.5515 5.09983H36.7741V8H35.4531V0H38.0882ZM36.7672 1.16287V3.92995H38.0331C38.9619 3.92995 39.4573 3.39054 39.4573 2.54991C39.4573 1.70228 38.9619 1.16988 38.0331 1.16988L36.7672 1.16287Z"
				fill="black"/>
			<path
				d="M43.571 5.09282V7.99299H42.25V0H44.8988C46.5913 0 47.6164 1.00175 47.6164 2.54991C47.6164 4.09807 46.5981 5.09983 44.8988 5.09983L43.571 5.09282ZM44.8438 1.16287H43.5778V3.92995H44.8438C45.7725 3.92995 46.2679 3.39054 46.2679 2.54991C46.2679 1.70228 45.7725 1.16287 44.8438 1.16287Z"
				fill="black"/>
			<path
				d="M54.7986 7.99299H53.3606L52.707 6.05955H49.611L48.9574 7.99299H47.5195L50.4229 0H51.9021L54.7986 7.99299ZM50.0101 4.89667H52.3218L51.1659 1.4711L50.0101 4.89667Z"
				fill="black"/>
			<path
				d="M57.6175 3.40455L59.6058 0H61.0162L58.2779 4.71454V7.99299H56.957V4.71454L54.2188 0H55.6291L57.6175 3.40455Z"
				fill="black"/>
			<path
				d="M62.5283 0.545886C62.5283 0.447813 62.4733 0.384766 62.3632 0.384766H62.2188V0.707007H62.3632C62.4664 0.707007 62.5283 0.64396 62.5283 0.545886Z"
				fill="black"/>
			<path
				d="M62.3266 0.0274583C61.9551 0.020453 61.6523 0.335689 61.6523 0.713973C61.6523 1.09226 61.9551 1.40049 62.3266 1.40049C62.6224 1.40049 62.877 1.20434 62.9664 0.931136C62.9871 0.861084 63.0008 0.784026 63.0008 0.706968C63.0077 0.342695 62.7119 0.0344636 62.3266 0.0274583ZM62.5261 1.18333L62.2991 0.847073H62.2096V1.18333H62.0583V0.251626H62.3679C62.5674 0.251626 62.6843 0.370716 62.6843 0.545847C62.6843 0.692957 62.6018 0.798036 62.4642 0.833062L62.6981 1.18333H62.5261Z"
				fill="black"/>
			<path
				d="M3.08507 7.27198C3.08507 7.66428 2.77547 7.97952 2.39019 7.97952C2.00491 7.97952 1.69531 7.65727 1.69531 7.27198C1.69531 6.87969 2.00491 6.56445 2.39019 6.56445C2.77547 6.56445 3.08507 6.87969 3.08507 7.27198Z"
				fill="black"/>
			<path
				d="M7.2921 7.27198C7.2921 7.66428 6.9825 7.97952 6.59722 7.97952C6.21194 7.97952 5.90234 7.65727 5.90234 7.27198C5.90234 6.87969 6.21194 6.56445 6.59722 6.56445C6.9825 6.56445 7.2921 6.87969 7.2921 7.27198Z"
				fill="black"/>
			<path
				d="M7.96702 1.10764L6.03374 0.0078125L6.10943 0.49818H0L2.38735 6.28452H6.60478L7.25838 2.24249L5.90303 3.03408L5.57967 5.09363L3.20607 5.10063L1.8232 1.7241H6.1163L6.03374 2.21447L7.96702 1.10764Z"
				fill="black"/>
		</g>
	</g>
	<defs>
		<clipPath id="clip0">
			<rect width="63" height="8" fill="white"/>
		</clipPath>
	</defs>
</svg>

<svg width="63" height="8" fill="none" xmlns="http://www.w3.org/2000/svg"><g clip-path="url(#clip0)" fill="#000" opacity=".5"><path d="M9.866 0h1.321v6.83h3.33v1.163H9.86L9.866 0zm12.8 7.993h-1.438l-.654-1.933h-3.096l-.653 1.933h-1.438L18.29 0h1.48l2.896 7.993zm-4.789-3.096h2.312L19.033 1.47l-1.156 3.426zm6.506-3.734h-2.106V0h5.539v1.163h-2.112v6.83h-1.321v-6.83zM29.047 0h4.781v1.163h-3.453V3.39h3.185v1.162h-3.185v2.27h3.557v1.163h-4.878V0h-.007zm9.041 0c1.693 0 2.718 1.002 2.718 2.55 0 1.268-.688 2.172-1.872 2.459L40.964 8h-1.459l-1.954-2.9h-.777V8h-1.32V0h2.634zm-1.32 1.163V3.93h1.265c.929 0 1.424-.54 1.424-1.38 0-.848-.495-1.38-1.424-1.38l-1.266-.007zm6.803 3.93v2.9H42.25V0h2.649c1.692 0 2.717 1.002 2.717 2.55 0 1.548-1.018 2.55-2.717 2.55l-1.328-.007zm1.273-3.93h-1.266V3.93h1.266c.928 0 1.424-.54 1.424-1.38 0-.848-.495-1.387-1.424-1.387zm9.955 6.83H53.36l-.654-1.933H49.61l-.654 1.933H47.52L50.424 0h1.48L54.8 7.993zM50.01 4.897h2.312L51.166 1.47 50.01 4.897zm7.607-1.492L59.606 0h1.41l-2.738 4.715v3.278h-1.321V4.715L54.219 0h1.41l1.989 3.405zM62.528.546c0-.098-.055-.161-.165-.161h-.144v.322h.144c.103 0 .165-.063.165-.161z"/><path d="M62.327.027c-.372-.007-.675.309-.675.687 0 .378.303.686.675.686A.677.677 0 0063 .707a.675.675 0 00-.674-.68zm.2 1.156l-.228-.336h-.09v.336h-.15V.252h.309c.2 0 .316.119.316.294a.28.28 0 01-.22.287l.234.35h-.172zM3.085 7.272a.7.7 0 01-.695.708.704.704 0 01-.695-.708.7.7 0 01.695-.708.7.7 0 01.695.708zm4.207 0a.7.7 0 01-.695.708.704.704 0 01-.695-.708.7.7 0 01.695-.708.7.7 0 01.695.708zm.675-6.164L6.034.008l.075.49H0l2.387 5.787h4.218l.653-4.043-1.355.792-.323 2.06-2.374.007-1.383-3.377h4.293l-.082.49 1.933-1.106z"/></g><defs><clipPath id="clip0"><path fill="#fff" d="M0 0h63v8H0z"/></clipPath></defs></svg>
